scalable/actions/gimp-layer.svg

<svg height="16" width="16" xmlns="http://www.w3.org/2000/svg"><g fill="#bebebe"><path d="m0 9 5.0019531 6h10.9980469l-2.5-3h-8.9648438l-2.5019531-3z" opacity=".35"/><path d="m0 1 2.5 3h8.964844l2.501953 3h2.033203l-5.001953-6z" opacity=".35"/><path d="m0 4.9999999h10.997149l5.002851 6.0000001h-10.997149z"/></g></svg>

<?xml version="1.0" encoding="UTF-8" standalone="no"?>
<svg
   xmlns:dc="http://purl.org/dc/elements/1.1/"
   xmlns:cc="http://creativecommons.org/ns#"
   xmlns:rdf="http://www.w3.org/1999/02/22-rdf-syntax-ns#"
   xmlns:svg="http://www.w3.org/2000/svg"
   xmlns="http://www.w3.org/2000/svg"
   xmlns:sodipodi="http://sodipodi.sourceforge.net/DTD/sodipodi-0.dtd"
   xmlns:inkscape="http://www.inkscape.org/namespaces/inkscape"
   height="16"
   width="16"
   version="1.1"
   id="svg10"
   sodipodi:docname="gimp-layer.svg"
   inkscape:version="0.92.2 2405546, 2018-03-11">
  <metadata
     id="metadata16">
    <rdf:RDF>
      <cc:Work
         rdf:about="">
        <dc:format>image/svg+xml</dc:format>
        <dc:type
           rdf:resource="http://purl.org/dc/dcmitype/StillImage" />
      </cc:Work>
    </rdf:RDF>
  </metadata>
  <defs
     id="defs14" />
  <sodipodi:namedview
     pagecolor="#ffffff"
     bordercolor="#666666"
     borderopacity="1"
     objecttolerance="10"
     gridtolerance="10"
     guidetolerance="10"
     inkscape:pageopacity="0"
     inkscape:pageshadow="2"
     inkscape:window-width="1920"
     inkscape:window-height="1138"
     id="namedview12"
     showgrid="false"
     inkscape:zoom="14.75"
     inkscape:cx="-4.0338983"
     inkscape:cy="8"
     inkscape:window-x="1920"
     inkscape:window-y="38"
     inkscape:window-maximized="0"
     inkscape:current-layer="svg10" />
  <path
     style="fill:#bebebe;opacity:0.35"
     inkscape:connector-curvature="0"
     id="path6"
     d="m 0,9 5.0019531,6 H 16 L 13.5,12 H 4.5351562 L 2.0332031,9 Z" />
  <path
     style="fill:#bebebe;opacity:0.35"
     d="m 0,1 2.5,3 h 8.964844 l 2.501953,3 H 16 L 10.998047,1 Z"
     id="path826"
     inkscape:connector-curvature="0" />
  <path
     style="fill:#bebebe"
     inkscape:connector-curvature="0"
     id="path2"
     d="M 0,4.9999999 H 10.997149 L 16,11 H 5.002851 Z" />
</svg>
